X: 817
T: Gemiciler Kalkalım
C: Hüseyin Dilâver
O: Turkey
F: http://compmusic.upf.edu/node/140
N: segah--turku--devrihindi--gemiciler--trabzon
N: makam= segah
N: form= turku
N: usul= devrihindi = 7/4
M: 7/4
L: 1/16
K: C _1/4B _1/4e ^f 
Q: 1/4=480
%%MIDI tuningsystem comma53
B c d c d2 c  | d2 d c B2 B  | c2 d c B2 A  | \
w:  ARANAĞME  |   |   | 
B2 B2 B2 z  | B c d c d2 c  | 
w:   |  ARANAĞME  | 
d2 d c B2 B  | c2 d c B2 A  | B2 B2 B2 z  | \
w:   |   |   | 
g2 g2 g g2  | f a g f e2 z  | 
w:  Ge mi ci ler   |  kal *  ka *  lım   | 
f2 f z e2 d  | e2 e2 e2 z  | f2 f e d2 d  | \
w:  şu  yel ke ni   |  ta ka lım    |  Şu şu *  rup  ta   | 
d2 d c B2 z  | c2 c2 B2 A  | 
w:  yel ke *  ni   |  sırt_ üs tü ne   | 
B2 B2 B2 z  | B c d2 d2 d  | d2 d c B2 z  | \
w:  ya ta lım    |  Kı *  zıl_ ır mak   |  ba şı *  na   | 
B2 c2 B2 A  | B2 B2 B2 z  | 
w:  şu  ır ga tı   |  a ta lım    | 
g2 g f e2 d  | d z d c B2 z  | c2 c2 B2 A  | \
w:  Tu ta *  lım  ba  |  lık  hav *  yar   |  key fü mü ze   | 
B2 B2 B2 z  | B c d c d2 c  | 
w:  ba ka lım    |  ARANAĞME  | 
d2 d c B2 B  | c2 d c B2 A  | B2 B2 B2 z  | \
w:   |   |   | 
B c d c d2 c  | d2 d c B2 B  | 
w:  ARANAĞME  |   | 
c2 d c B2 A  | B2 B2 B2 z  | g2 g2 g g2  | \
w:   |   |  Ge mi ci ler   | 
f a g f e2 z  | f2 f z e2 d  | 
w:  kal *  ka *  lım   |  şu  yel ke ni   | 
e2 e2 e2 z  | f2 f e d2 d  | d2 d c B2 z  | \
w:  ta ka lım    |  Şu şu *  rup  ta   |  yel ke *  ni   | 
c2 c2 B2 A  | B2 B2 B2 z  | 
w:  sırt_ üs tü ne   |  ya ta lım    | 
B c d2 d2 d  | d2 d c B2 z  | B2 c2 B2 A  | \
w:  Kı *  zıl_ ır mak   |  ba şı *  na   |  şu  ır ga tı   | 
B2 B2 B2 z  | g2 g f e2 d  | 
w:  a ta lım    |  Tu ta *  lım  ba  | 
d z d c B2 z  | c2 c2 B2 A  | B2 B2 B2 z  | z8  | \
w:  lık  hav *  yar   |  key fü mü ze   |  ba ka lım    |  | 
f4f2f2  | f2f2f2f2  | 
w:  Çe kin_ u  |  şak lar  çe kin    | 
g4g2g2  | g{a}ff2f2f2  | g4g2g2  | gffgfeed  | \
w:  He men_ al  |  dık  *  *  ır ga tı    |  Ge li yor   |  bir  *  sert  *  Poy *  raz    | 
f3eedd2  | 
w:  Vu *  ra *  lım   | 
c2d2d2d2  | f4f2f2  | f2f2f2f2  | g4g2g2  | \
w:  i ki  ga tı    |  Çe kin_ u  |  şak lar  çe kin    |  He men_ al  | 
g{a}ff2f2f2  | g4g2g2  | 
w:  dık  *  *  ır ga tı    |  Ge li yor   | 
gffgfeed  | f3eedd2  | c2d2d2d2  | d8  | z7  | \
w:  bir  *  sert  *  Poy *  raz    |  Vu *  ra *  lım   |  i ki  ga tı    |   |  | 
B2 B2 c2 d  | 
w:  İs ma il_ a  | 
d2 d2 d2 z  | B2 B2 c2 d  | d2 d2 d2 z  | \
w:  mu ra da    |  Ha san  geç sin   |  çör de ye    | 
B2 B2 c2 d  | d2 d2 d2 z  | f2 f e e2 d  | 
w:  U şak lar  ben   |  dü men de    |  Coş tum  *  ar ka  | 
e2 e2 e2 d  | d2 d2 B2 d  | d c c B B2 z  | \
w:  daş  coş tum    |  Bi raz  ça lam   |  ke *  men *  çe    | 
B2 B2 c2 d  | d2 d2 d2 z  | 
w:  Da ğı  al dı   |  bir  du man    | 
B2 B2 c2 d  | d2 d2 d2 z  | g2 g2 g f g  | \
w:  Oh  ha va  gü  |  zel  ya man    |  Doğ ru  yü *  rü   | 
f2 f f e2 d  | f2 f g f2 e  | 
w:  ah  ge lin    |  Ba yıl *  dım_ a  | 
e2 e2 e d2  | B c d2 d c d  | c2 B2 B2 z  | |


